icons/filter.svg

<svg xmlns="http://www.w3.org/2000/svg" width="96" height="96"><path d="M20.2 11.7h55.6c3.2-.3 6.1 2 6.6 5.2 0 .6 0 1.3-.2 1.9l-.7 2-20 31.7c-1 1.5-1.5 3.3-1.5 5.2v12c0 4-2.2 7.6-5.8 9.4L45 83.7l-1.9.5c-.4.1-.9.1-1.4.1-1.6-.2-3.1-1-4.2-2.2-1.1-1.3-1.6-2.9-1.5-4.5V57.7c0-1.9-.5-3.7-1.5-5.2l-20-31.7-.7-2c-.2-.6-.2-1.3-.2-1.9.5-3.2 3.4-5.5 6.6-5.2zM44 75.2V57.7c0-3.4-1-6.7-2.8-9.5L23.3 19.7h49.4L54.8 48.2C53 51 52 54.3 52 57.7v12c0 .9-.5 1.8-1.4 2.2L44 75.2z" fill-rule="evenodd" fill="#454545"/></svg>

<?xml version="1.0" standalone="no"?><!-- Generator: Gravit.io --><svg xmlns="http://www.w3.org/2000/svg" xmlns:xlink="http://www.w3.org/1999/xlink" width="96" height="96"><path d=" M 20.2 11.7 L 75.8 11.7 C 79 11.4 81.9 13.7 82.4 16.9 C 82.4 17.5 82.4 18.2 82.2 18.8 L 81.5 20.8 L 61.5 52.5 C 60.5 54 60 55.8 60 57.7 L 60 69.7 C 60 73.7 57.8 77.3 54.2 79.1 L 45 83.7 L 43.1 84.2 C 42.7 84.3 42.2 84.3 41.7 84.3 C 40.1 84.1 38.6 83.3 37.5 82.1 C 36.4 80.8 35.9 79.2 36 77.6 L 36 57.7 C 36 55.8 35.5 54 34.5 52.5 L 14.5 20.8 L 13.8 18.8 C 13.6 18.2 13.6 17.5 13.6 16.9 C 14.1 13.7 17 11.4 20.2 11.7 Z  M 44 75.2 L 44 57.7 C 44 54.3 43 51 41.2 48.2 L 23.3 19.7 L 72.7 19.7 L 54.8 48.2 C 53 51 52 54.3 52 57.7 L 52 69.7 C 52 70.6 51.5 71.5 50.6 71.9 L 44 75.2 Z " fill-rule="evenodd" fill="#454545" stroke="none"/><mask id="_mask_1Jmc5B89jiVy1f1S97uEnIyGjpoucL2I"><path d=" M 20.2 11.7 L 75.8 11.7 C 79 11.4 81.9 13.7 82.4 16.9 C 82.4 17.5 82.4 18.2 82.2 18.8 L 81.5 20.8 L 61.5 52.5 C 60.5 54 60 55.8 60 57.7 L 60 69.7 C 60 73.7 57.8 77.3 54.2 79.1 L 45 83.7 L 43.1 84.2 C 42.7 84.3 42.2 84.3 41.7 84.3 C 40.1 84.1 38.6 83.3 37.5 82.1 C 36.4 80.8 35.9 79.2 36 77.6 L 36 57.7 C 36 55.8 35.5 54 34.5 52.5 L 14.5 20.8 L 13.8 18.8 C 13.6 18.2 13.6 17.5 13.6 16.9 C 14.1 13.7 17 11.4 20.2 11.7 Z  M 44 75.2 L 44 57.7 C 44 54.3 43 51 41.2 48.2 L 23.3 19.7 L 72.7 19.7 L 54.8 48.2 C 53 51 52 54.3 52 57.7 L 52 69.7 C 52 70.6 51.5 71.5 50.6 71.9 L 44 75.2 Z " fill-rule="evenodd" fill="white" stroke="none"/></mask><path d=" M 20.2 11.7 L 75.8 11.7 C 79 11.4 81.9 13.7 82.4 16.9 C 82.4 17.5 82.4 18.2 82.2 18.8 L 81.5 20.8 L 61.5 52.5 C 60.5 54 60 55.8 60 57.7 L 60 69.7 C 60 73.7 57.8 77.3 54.2 79.1 L 45 83.7 L 43.1 84.2 C 42.7 84.3 42.2 84.3 41.7 84.3 C 40.1 84.1 38.6 83.3 37.5 82.1 C 36.4 80.8 35.9 79.2 36 77.6 L 36 57.7 C 36 55.8 35.5 54 34.5 52.5 L 14.5 20.8 L 13.8 18.8 C 13.6 18.2 13.6 17.5 13.6 16.9 C 14.1 13.7 17 11.4 20.2 11.7 Z  M 44 75.2 L 44 57.7 C 44 54.3 43 51 41.2 48.2 L 23.3 19.7 L 72.7 19.7 L 54.8 48.2 C 53 51 52 54.3 52 57.7 L 52 69.7 C 52 70.6 51.5 71.5 50.6 71.9 L 44 75.2 Z " fill-rule="evenodd" fill="none" stroke="none" stroke-width="16" mask="url(#_mask_1Jmc5B89jiVy1f1S97uEnIyGjpoucL2I)"/></svg>
